X: 12667
T: Fasiken
R: reel
M: 4/4
K: Gmajor
f|gdB(G G)DAB|cBAG =F3E|=FGAB cBAG|(3Bcd ef gdBd|
gdB(G G)DAB|cBAG =F3E|=FGAB cBAG|(3Bcd AB G3F||
=F3d =F2 d=F|E3c E2 cE|=F2 AB cBAG|(3Bcd ef gdBG|
=F3d =F2 d=F|E3c E2 cE|=F2 AB cBAG|(3Bcd AB G3F||
gdB(G G)DAB|cBAG =F3E|=FGAB cBAG|(3Bcd (3Bcd gdBd|
gdB(G G)DAB|cBAG =F3E|=FGAB cBAG|(3Bcd AB G3F||
=F2 c=F d=Fc=F|E2 cE dEcE|=F2 AB cBAG|(3Bcd ef gdBG|
=F3c d=Fc=F|E3c dEcE|=F2 AB cBAG|(3Bcd AB G3F||

